src/assets/images/member/icon-password--off.svg

<svg version="1.1" xmlns="http://www.w3.org/2000/svg" xmlns:xlink="http://www.w3.org/1999/xlink" width="512" height="512" viewBox="0,0,256,256"><g fill="#222055" fill-rule="nonzero" stroke="none" stroke-width="1" stroke-linecap="butt" stroke-linejoin="miter" stroke-miterlimit="10" stroke-dasharray="" stroke-dashoffset="0" font-family="none" font-weight="none" font-size="none" text-anchor="none" style="mix-blend-mode: normal"><g transform="translate(0.00191,0) scale(10.66667,10.66667)"><g id="_01_align_center"><path d="M23.821,11.181v0c-0.878,-1.92 -4.321,-8.181 -11.821,-8.181c-7.5,0 -10.943,6.261 -11.821,8.181c-0.23849,0.52065 -0.23849,1.11935 0,1.64c0.878,1.918 4.321,8.179 11.821,8.179c7.5,0 10.943,-6.261 11.821,-8.181c0.23802,-0.52006 0.23802,-1.11794 0,-1.638zM12,19c-6.307,0 -9.25,-5.366 -10,-6.989c0.75,-1.645 3.693,-7.011 10,-7.011c6.292,0 9.236,5.343 10,7c-0.764,1.657 -3.708,7 -10,7z"></path><path d="M12,7c-2.76142,0 -5,2.23858 -5,5c0,2.76142 2.23858,5 5,5c2.76142,0 5,-2.23858 5,-5c-0.00331,-2.76005 -2.23995,-4.99669 -5,-5zM12,15c-1.65685,0 -3,-1.34315 -3,-3c0,-1.65685 1.34315,-3 3,-3c1.65685,0 3,1.34315 3,3c0,1.65685 -1.34315,3 -3,3z"></path></g></g></g></svg>

<?xml version="1.0" encoding="UTF-8"?>
<svg xmlns="http://www.w3.org/2000/svg" viewBox="0 0 24 24" width="512" height="512"><g id="_01_align_center" data-name="01 align center"><path d="M23.821,11.181v0C22.943,9.261,19.5,3,12,3S1.057,9.261.179,11.181a1.969,1.969,0,0,0,0,1.64C1.057,14.739,4.5,21,12,21s10.943-6.261,11.821-8.181A1.968,1.968,0,0,0,23.821,11.181ZM12,19c-6.307,0-9.25-5.366-10-6.989C2.75,10.366,5.693,5,12,5c6.292,0,9.236,5.343,10,7C21.236,13.657,18.292,19,12,19Z"/><path d="M12,7a5,5,0,1,0,5,5A5.006,5.006,0,0,0,12,7Zm0,8a3,3,0,1,1,3-3A3,3,0,0,1,12,15Z"/></g></svg>
